**kern	**kern	**dynam
*part1	*part1	*part1
*staff2	*staff1	*
*I"Piano	*	*
*clefF4	*clefG2	*
*k[f#c#g#d#a#e#]	*k[f#c#g#d#a#e#]	*
=1	=1	=1
*	*^	*
(4.C#	(8.A#L 8.f#	4.f#	.
.	16BK 16g#	.	.
.	8c#J) 8a#	.	.
=	=	=	=
4.CC#	(8.G#L 8.e#	4.c#	.
.	16A#K 16f#	.	.
.	8BJ) 8g#	.	.
=	=	=	=
4FF#)	4f#	4A#	.
8r	8r	8ryy	.
=	=	=	=
8.E#L 8.A#	(4.cc#	8.r	.
16E#K 16A#	.	16e#KL 16g#	.
8E#J 8A#	.	8e#J 8g#	.
=	=	=	=
8.D#L 8.A#	8.f#L	8.c#L	.
16D#K 16G#	16g#K	16c#K	.
8D#J 8F#	8a#J)	8c#J	.
=	=	=	=
8.D#L 8.G#	(4.b	8.r	.
16D#K 16G#	.	16BKL 16e#	.
8D#J 8G#	.	8BJ 8e#	.
=	=	=	=
8.C#L 8.G#	8.e#L	8.BL	.
16C#K 16F#	16f#K	16BK	.
8C#J 8E#	8g#J)	8BJ	.
*	*v	*v	*
=	=	=
(4.AA#	8.c#L 8.f#	p <
.	16c#K 16f#	.
.	8c#J 8f#	.
=	=	=
*-	*-	*-
!!!system-decoration: {(s1,s2)}
